X:590
T: Belfast Boat
T: B\'ad go B\'eal Feirste
S: B.Breathnach:"Ceol Rince na hEireann" IV/2
Z: B.Black
L: 1/8
M: 6/8
R: jig
K: G
GBd g2g|agf efg|GBd g2g|ecA A3|
GBd g2g|agf efg|ded cBA|BGG G3 :|
DGG BGG|dGG BAG|DGG BGG|EAA A3|
DGG BGG|dGG cde|ded cBA|BGG G3 :|
